X: 1966
T: Arthur Darley's
R: jig
M: 6/8
K: Dmajor
e|:fgf edc|dAA BAG|FED EDC|DA,B, CDE|
D2 d E2e|F2f G2g|fed edc|1 d3 d2e:|2 d2d d=c_B||
|:A2=f fef|A2=f fef|A=ff Agg|Aaa A_bb|
A2=f fef|A2=f f2g|=fed ed^c|1 d3 d=c_B:|2 d3 d2||

